dist/assets/img/svg/icon-tt.svg

<svg width="19" height="22" viewBox="0 0 19 22" fill="none" xmlns="http://www.w3.org/2000/svg">
<path d="M10.1148 0.183723C11.2437 0.166016 12.3663 0.176509 13.4875 0.166016C13.5554 1.50453 14.0303 2.86796 14.9969 3.8143C15.9616 4.78424 17.3261 5.22822 18.6537 5.37841V8.89946C17.4095 8.85814 16.1595 8.59582 15.0306 8.0528C14.5388 7.82721 14.0808 7.53668 13.6324 7.2396C13.6266 9.79464 13.6428 12.3464 13.6162 14.891C13.549 16.1134 13.1511 17.3299 12.4497 18.3372C11.3214 20.0142 9.36296 21.1074 7.35148 21.1415C6.11768 21.213 4.88517 20.872 3.83382 20.2437C2.09149 19.2023 0.865449 17.2958 0.686881 15.2497C0.666177 14.8123 0.65906 14.3755 0.676529 13.9486C0.831805 12.2848 1.64377 10.6931 2.9041 9.61036C4.33264 8.34923 6.33377 7.74851 8.20744 8.10396C8.22491 9.39919 8.1738 10.6931 8.1738 11.9883C7.31784 11.7076 6.3176 11.7863 5.56968 12.313C5.02362 12.6717 4.60891 13.2213 4.39281 13.843C4.21425 14.2863 4.26536 14.7788 4.27571 15.2497C4.4808 16.6846 5.84206 17.8906 7.29519 17.7601C8.25855 17.7496 9.1818 17.183 9.68386 16.3534C9.84625 16.0629 10.0281 15.7658 10.0378 15.4241C10.1225 13.86 10.0889 12.3025 10.0992 10.7384C10.1063 7.21337 10.0889 3.69822 10.1154 0.184378L10.1148 0.183723Z" fill="white" fill-opacity="0.7"/>
</svg>

<svg width="19" height="22" fill="none" xmlns="http://www.w3.org/2000/svg"><path d="M10.115.184c1.129-.018 2.251-.007 3.373-.018.067 1.339.542 2.702 1.509 3.648.965.97 2.33 1.414 3.657 1.564V8.9c-1.244-.04-2.494-.303-3.623-.846-.492-.226-.95-.516-1.399-.813-.005 2.555.01 5.106-.016 7.651a6.714 6.714 0 01-1.166 3.446c-1.129 1.677-3.087 2.77-5.099 2.805-1.233.071-2.466-.27-3.517-.898C2.09 19.202.865 17.296.687 15.25c-.02-.438-.028-.874-.01-1.301A6.584 6.584 0 012.904 9.61c1.429-1.26 3.43-1.861 5.303-1.506.018 1.295-.033 2.59-.033 3.884-.856-.28-1.856-.202-2.604.325a3.023 3.023 0 00-1.177 1.53c-.179.443-.128.936-.117 1.407.205 1.435 1.566 2.64 3.02 2.51.963-.01 1.886-.577 2.388-1.407.162-.29.344-.587.354-.929.085-1.564.05-3.121.061-4.686.007-3.525-.01-7.04.016-10.554z" fill="#fff" fill-opacity=".7"/></svg>
